X:1
T:Will You Take Jesus Today?
T:Robert Harkness
T:Will You Take Jesus Today?
T:Public Domain
T:Public Domain
C:Robert Harkness
Z:Public Domain
%%score 1 ( 2 3 )
L:1/8
M:4/4
K:Ab
V:1 treble 
V:2 bass 
V:3 bass 
V:1
 [CE]2 | [Ec]2 [Ec]2 [Ec] [Fd]2 [Ec] | [FB]2 [DF]2 [FB]2 [FA]2 | [EG]2 [EG]2 [DG] [CA]2 [EB] | %4
w: 1.~Will|you take Je- sus to|be your guide? His|love will bright- en the|
w: 2.~For|you the Sav- ior was|cru- ci- fied, Ac-|cept His love while you|
w: 3.~He|longs to en- ter your|heart of sin; How|can you turn Him a-|
w: 4.~I|will take Je- sus, my|Lord and king; His|word I glad- ly o-|
 [Ec]6 [CE]2 | [Ec]2 [Ec]2 [Ec] [Fd]2 [Ec] | [FB]2 [DF]2 [FB]2 [FA]2 | %7
w: way; Safe|in His keep- ing you|may a- bide; Will|
w: may; The|door of mer- cy stands|o- pen wide; Will|
w: way? Throw|wide the por- tal and|let Him in; Will|
w: bey; My|sins for- giv- en, His|praise I’ll sing, I|
 [EG]2 [EG]2 [Dd] [Ec]2 [DB] | [CA]6 ||"^Refrain" [CE]2 | [Ec]2 [Ec]2 [Ec] [Fd]2 [Ec] | %11
w: you take Je- sus to-|day?|||
w: you take Je- sus to-|day?|Will|you take Je- sus to-|
w: you take Je- sus to-|day?|||
w: will take Je- sus to-|day!|||
 [EB]6 [DE]2 | [DB]2 [DB]2 [DB] [Ec]2 [DB] | [CA]6 [CE]2 | [Ec]2 [=Ec]2 [_Ec] [Fd]2 [Ec] | %15
w: ||||
w: day? Will|you take Je- sus to-|day? He|of- fers par- don and|
w: ||||
w: ||||
 [FB]2 [Fc]2 [Fd]2 [FB]2 | [Ae]2 [Ac]2 [Gd] [Gc]2 [EB] | [EA]6 |] %18
w: |||
w: peace to all; Will|you take Je- sus to-|day?|
w: |||
w: |||
V:2
 [A,,A,]2 | [A,,A,]2 A,2 A, A,2 A, | [D,D]2 [D,A,]2 [D,A,]2 [D,D]2 | %3
 [E,B,]2 [E,B,]2 [E,B,] [E,A,]2 [E,G,] | [A,,A,]6 A,2 | A,2 A,2 A, A,2 A, | %6
 [D,D]2 [D,A,]2 [D,A,]2 [D,D]2 | [E,B,]2 [E,B,]2 [F,A,] [E,A,]2 [E,G,] | [A,,A,]6 || [A,,A,]2 | %10
 [A,,A,]2 A,2 A, A,2 A, | [E,G,]6 [E,G,]2 | [E,G,]2 [E,G,]2 [E,G,] [E,A,]2 [E,G,] | [A,,A,]6 A,2 | %14
 A,2 [G,B,]2 [F,=A,] [F,A,]2 [E,A,] | [D,B,]2 [C,=A,]2 [B,,B,]2 [B,,D]2 | %16
 [E,C]2 [E,E]2 [E,F] [E,E]2 [E,D] | [A,,C]6 |] %18
V:3
 x2 | x2 A,2 A, A,2 A, | x8 | x8 | x6 A,2 | A,2 A,2 A, A,2 A, | x8 | x8 | x6 || x2 | %10
 x2 A,2 A, A,2 A, | x8 | x8 | x6 A,2 | =A,2 x6 | x8 | x8 | x6 |] %18

